flaticon/fitness/dumbbell-5.svg

<svg xmlns="http://www.w3.org/2000/svg" width="32" height="32" viewBox="0 0 24 24">
    <path d="M6.144531 9.921875C6.15625 9.855469 6.167969 9.789062 6.183594 9.71875 7.863281 9.898438 9.539062 10 11.21875 10 12.890625 10 14.558594 9.898438 16.226562 9.753906 16.234375 9.8125 16.246094 9.867188 16.257812 9.921875 16.375 10.441406 16.855469 10.800781 17.375 10.800781L21.011719 10.800781C21.53125 10.800781 22.011719 10.441406 22.132812 9.921875 22.492188 8.082031 22.492188 6.203125 22.132812 4.484375 22.011719 3.964844 21.53125 3.605469 21.011719 3.605469L17.375 3.605469C16.855469 3.605469 16.417969 3.964844 16.257812 4.484375 16.242188 4.550781 16.230469 4.617188 16.21875 4.679688 12.90625 4.300781 9.53125 4.304688 6.183594 4.683594 6.171875 4.617188 6.160156 4.550781 6.144531 4.484375 6.023438 3.964844 5.546875 3.605469 5.027344 3.605469L1.390625 3.605469C.871094 3.605469.429688 3.964844.269531 4.484375-.0898438 6.203125-.0898438 8.082031.269531 9.921875.390625 10.441406.871094 10.800781 1.390625 10.800781L5.027344 10.800781C5.546875 10.800781 6.023438 10.441406 6.144531 9.921875zM17.375 4.40625L21.011719 4.40625C21.171875 4.40625 21.332031 4.527344 21.332031 4.644531 21.652344 6.246094 21.652344 8.003906 21.332031 9.722656 21.332031 9.882812 21.171875 10 21.011719 10L17.375 10C17.214844 10 17.097656 9.882812 17.054688 9.761719 17.027344 9.605469 17 9.449219 16.976562 9.289062 16.976562 9.273438 16.976562 9.257812 16.976562 9.242188 16.777344 7.882812 16.777344 6.523438 16.976562 5.207031 16.976562 5.183594 16.976562 5.164062 16.976562 5.140625 17 4.988281 17.027344 4.835938 17.054688 4.6875 17.054688 4.527344 17.214844 4.40625 17.375 4.40625zM10.023438 5.230469C10.035156 5.457031 10.191406 5.605469 10.421875 5.605469 10.65625 5.605469 10.816406 5.449219 10.820312 5.21875 11.085938 5.214844 11.355469 5.214844 11.621094 5.21875 11.625 5.449219 11.785156 5.605469 12.019531 5.605469 12.25 5.605469 12.40625 5.457031 12.417969 5.230469 13.648438 5.265625 14.875 5.351562 16.089844 5.484375 16.074219 5.617188 16.058594 5.746094 16.046875 5.878906 15.9375 6.875 15.957031 7.898438 16.097656 8.921875 15.140625 9.027344 14.179688 9.101562 13.214844 9.144531 13.191406 8.9375 13.039062 8.800781 12.820312 8.800781 12.589844 8.800781 12.433594 8.949219 12.421875 9.175781 12.152344 9.183594 11.886719 9.1875 11.621094 9.191406 11.613281 8.957031 11.457031 8.800781 11.222656 8.800781 10.984375 8.800781 10.828125 8.957031 10.820312 9.191406 10.554688 9.1875 10.289062 9.183594 10.019531 9.175781 10.007812 8.953125 9.851562 8.800781 9.621094 8.800781 9.402344 8.800781 9.25 8.9375 9.226562 9.148438 8.246094 9.105469 7.273438 9.03125 6.304688 8.921875 6.445312 7.898438 6.460938 6.875 6.355469 5.878906 6.339844 5.746094 6.328125 5.617188 6.3125 5.484375 7.539062 5.347656 8.78125 5.265625 10.023438 5.230469zM1.070312 9.761719C.75 8.082031.75 6.285156 1.070312 4.6875 1.109375 4.527344 1.230469 4.40625 1.390625 4.40625L5.027344 4.40625C5.1875 4.40625 5.34375 4.527344 5.34375 4.644531 5.664062 6.246094 5.664062 8.003906 5.34375 9.722656 5.34375 9.882812 5.1875 10 5.027344 10L1.390625 10C1.230469 10 1.109375 9.882812 1.070312 9.761719zM23.730469 14.078125C23.609375 13.558594 23.128906 13.199219 22.609375 13.199219L18.972656 13.199219C18.453125 13.199219 17.976562 13.558594 17.855469 14.078125 17.839844 14.140625 17.828125 14.207031 17.816406 14.273438 14.503906 13.894531 11.128906 13.894531 7.78125 14.277344 7.769531 14.210938 7.757812 14.144531 7.742188 14.078125 7.625 13.558594 7.144531 13.199219 6.625 13.199219L2.988281 13.199219C2.46875 13.199219 2.027344 13.558594 1.867188 14.078125 1.507812 15.796875 1.507812 17.675781 1.867188 19.515625 1.988281 20.035156 2.46875 20.394531 2.988281 20.394531L6.625 20.394531C7.144531 20.394531 7.625 20.035156 7.742188 19.515625 7.757812 19.445312 7.769531 19.378906 7.78125 19.3125 9.460938 19.488281 11.140625 19.59375 12.820312 19.59375 14.488281 19.59375 16.15625 19.492188 17.824219 19.347656 17.835938 19.402344 17.84375 19.457031 17.855469 19.515625 17.976562 20.035156 18.453125 20.394531 18.972656 20.394531L22.609375 20.394531C23.128906 20.394531 23.609375 20.035156 23.730469 19.515625 24.089844 17.675781 24.089844 15.796875 23.730469 14.078125zM6.625 19.59375L2.988281 19.59375C2.828125 19.59375 2.707031 19.472656 2.667969 19.355469 2.347656 17.675781 2.347656 15.875 2.667969 14.277344 2.667969 14.117188 2.828125 14 2.988281 14L6.625 14C6.785156 14 6.902344 14.078125 6.945312 14.238281 7.265625 15.835938 7.265625 17.59375 6.945312 19.3125 6.945312 19.472656 6.785156 19.59375 6.625 19.59375zM14.8125 18.738281C14.789062 18.53125 14.636719 18.394531 14.417969 18.394531 14.1875 18.394531 14.03125 18.542969 14.019531 18.769531 13.753906 18.773438 13.484375 18.777344 13.21875 18.78125 13.210938 18.550781 13.054688 18.394531 12.820312 18.394531 12.582031 18.394531 12.425781 18.550781 12.421875 18.78125 12.152344 18.78125 11.886719 18.777344 11.621094 18.769531 11.609375 18.542969 11.453125 18.394531 11.21875 18.394531 11 18.394531 10.847656 18.53125 10.824219 18.738281 9.847656 18.695312 8.871094 18.621094 7.902344 18.515625 8.042969 17.492188 8.0625 16.464844 7.953125 15.46875 7.941406 15.339844 7.925781 15.207031 7.910156 15.078125 9.136719 14.941406 10.378906 14.855469 11.621094 14.824219 11.632812 15.046875 11.789062 15.199219 12.019531 15.199219 12.253906 15.199219 12.414062 15.042969 12.417969 14.808594 12.6875 14.808594 12.953125 14.808594 13.21875 14.808594 13.226562 15.042969 13.382812 15.199219 13.617188 15.199219 13.8125 15.199219 14.003906 15.050781 14.015625 14.824219 15.246094 14.859375 16.472656 14.941406 17.6875 15.078125 17.671875 15.207031 17.660156 15.339844 17.644531 15.46875 17.539062 16.464844 17.554688 17.492188 17.695312 18.515625 16.742188 18.621094 15.777344 18.695312 14.8125 18.738281zM22.929688 19.3125C22.929688 19.472656 22.769531 19.59375 22.609375 19.59375L18.972656 19.59375C18.8125 19.59375 18.695312 19.472656 18.65625 19.355469 18.625 19.195312 18.597656 19.039062 18.574219 18.882812 18.574219 18.867188 18.574219 18.851562 18.574219 18.835938 18.375 17.476562 18.375 16.117188 18.574219 14.796875 18.574219 14.777344 18.574219 14.753906 18.574219 14.734375 18.597656 14.582031 18.625 14.429688 18.65625 14.277344 18.65625 14.117188 18.8125 14 18.972656 14L22.609375 14C22.769531 14 22.890625 14.078125 22.929688 14.238281 23.25 15.835938 23.25 17.59375 22.929688 19.3125zM22.929688 19.3125"/>
    <path d="M10.421875 7.203125C10.660156 7.203125 10.820312 7.042969 10.820312 6.804688 10.820312 6.566406 10.660156 6.40625 10.421875 6.40625 10.179688 6.40625 10.023438 6.566406 10.023438 6.804688 10.023438 7.042969 10.179688 7.203125 10.421875 7.203125zM12.019531 7.203125C12.261719 7.203125 12.417969 7.042969 12.417969 6.804688 12.417969 6.566406 12.261719 6.40625 12.019531 6.40625 11.78125 6.40625 11.621094 6.566406 11.621094 6.804688 11.621094 7.042969 11.78125 7.203125 12.019531 7.203125zM9.621094 8.003906C9.863281 8.003906 10.023438 7.84375 10.023438 7.605469 10.023438 7.363281 9.863281 7.203125 9.621094 7.203125 9.382812 7.203125 9.222656 7.363281 9.222656 7.605469 9.222656 7.84375 9.382812 8.003906 9.621094 8.003906zM11.21875 7.203125C10.980469 7.203125 10.820312 7.363281 10.820312 7.605469 10.820312 7.84375 10.980469 8.003906 11.21875 8.003906 11.460938 8.003906 11.621094 7.84375 11.621094 7.605469 11.621094 7.363281 11.460938 7.203125 11.21875 7.203125zM12.820312 7.203125C12.578125 7.203125 12.417969 7.363281 12.417969 7.605469 12.417969 7.84375 12.578125 8.003906 12.820312 8.003906 13.058594 8.003906 13.21875 7.84375 13.21875 7.605469 13.21875 7.363281 13.058594 7.203125 12.820312 7.203125zM10.421875 8.003906C10.179688 8.003906 10.023438 8.164062 10.023438 8.402344 10.023438 8.644531 10.179688 8.800781 10.421875 8.800781 10.660156 8.800781 10.820312 8.644531 10.820312 8.402344 10.820312 8.164062 10.660156 8.003906 10.421875 8.003906zM12.019531 8.003906C11.78125 8.003906 11.621094 8.164062 11.621094 8.402344 11.621094 8.644531 11.78125 8.800781 12.019531 8.800781 12.261719 8.800781 12.417969 8.644531 12.417969 8.402344 12.417969 8.164062 12.261719 8.003906 12.019531 8.003906zM9.621094 6.40625C9.863281 6.40625 10.023438 6.246094 10.023438 6.003906 10.023438 5.765625 9.863281 5.605469 9.621094 5.605469 9.382812 5.605469 9.222656 5.765625 9.222656 6.003906 9.222656 6.246094 9.382812 6.40625 9.621094 6.40625zM11.21875 6.40625C11.460938 6.40625 11.621094 6.246094 11.621094 6.003906 11.621094 5.765625 11.460938 5.605469 11.21875 5.605469 10.980469 5.605469 10.820312 5.765625 10.820312 6.003906 10.820312 6.246094 10.980469 6.40625 11.21875 6.40625zM12.820312 6.40625C13.058594 6.40625 13.21875 6.246094 13.21875 6.003906 13.21875 5.765625 13.058594 5.605469 12.820312 5.605469 12.578125 5.605469 12.417969 5.765625 12.417969 6.003906 12.417969 6.246094 12.578125 6.40625 12.820312 6.40625zM12.019531 16.796875C12.261719 16.796875 12.417969 16.636719 12.417969 16.394531 12.417969 16.15625 12.261719 15.996094 12.019531 15.996094 11.78125 15.996094 11.621094 16.15625 11.621094 16.394531 11.621094 16.636719 11.78125 16.796875 12.019531 16.796875zM13.617188 16.796875C13.820312 16.796875 14.019531 16.636719 14.019531 16.394531 14.019531 16.15625 13.859375 15.996094 13.617188 15.996094 13.378906 15.996094 13.21875 16.15625 13.21875 16.394531 13.21875 16.636719 13.378906 16.796875 13.617188 16.796875zM11.21875 16.796875C10.980469 16.796875 10.820312 16.957031 10.820312 17.195312 10.820312 17.433594 10.980469 17.59375 11.21875 17.59375 11.460938 17.59375 11.621094 17.433594 11.621094 17.195312 11.621094 16.957031 11.460938 16.796875 11.21875 16.796875zM12.820312 16.796875C12.578125 16.796875 12.417969 16.957031 12.417969 17.195312 12.417969 17.433594 12.578125 17.59375 12.820312 17.59375 13.058594 17.59375 13.21875 17.433594 13.21875 17.195312 13.21875 16.957031 13.058594 16.796875 12.820312 16.796875zM14.417969 16.796875C14.179688 16.796875 14.019531 16.957031 14.019531 17.195312 14.019531 17.433594 14.179688 17.59375 14.417969 17.59375 14.617188 17.59375 14.816406 17.433594 14.816406 17.195312 14.816406 16.957031 14.65625 16.796875 14.417969 16.796875zM12.019531 17.59375C11.78125 17.59375 11.621094 17.753906 11.621094 17.996094 11.621094 18.234375 11.78125 18.394531 12.019531 18.394531 12.261719 18.394531 12.417969 18.234375 12.417969 17.996094 12.417969 17.753906 12.261719 17.59375 12.019531 17.59375zM13.617188 17.59375C13.378906 17.59375 13.21875 17.753906 13.21875 17.996094 13.21875 18.234375 13.378906 18.394531 13.617188 18.394531 13.820312 18.394531 14.019531 18.234375 14.019531 17.996094 14.019531 17.753906 13.859375 17.59375 13.617188 17.59375zM11.21875 15.996094C11.460938 15.996094 11.621094 15.835938 11.621094 15.597656 11.621094 15.355469 11.460938 15.199219 11.21875 15.199219 10.980469 15.199219 10.820312 15.355469 10.820312 15.597656 10.820312 15.835938 10.980469 15.996094 11.21875 15.996094zM12.820312 15.996094C13.058594 15.996094 13.21875 15.835938 13.21875 15.597656 13.21875 15.355469 13.058594 15.199219 12.820312 15.199219 12.578125 15.199219 12.417969 15.355469 12.417969 15.597656 12.417969 15.835938 12.578125 15.996094 12.820312 15.996094zM14.417969 15.199219C14.179688 15.199219 14.019531 15.355469 14.019531 15.597656 14.019531 15.835938 14.179688 15.996094 14.417969 15.996094 14.617188 15.996094 14.816406 15.835938 14.816406 15.597656 14.816406 15.355469 14.65625 15.199219 14.417969 15.199219zM14.417969 15.199219"/>
</svg>

<svg xmlns="http://www.w3.org/2000/svg" width="32" height="32" viewBox="0 0 24 24">
    <path d="M6.145 9.922c.011-.067.023-.133.039-.203 1.68.18 3.355.281 5.035.281 1.672 0 3.34-.102 5.008-.246.007.059.02.113.03.168.118.52.598.879 1.118.879h3.637c.52 0 1-.36 1.12-.88.36-1.839.36-3.718 0-5.437a1.156 1.156 0 0 0-1.12-.879h-3.637c-.52 0-.957.36-1.117.88-.016.066-.028.132-.04.195a44.439 44.439 0 0 0-10.034.004c-.012-.067-.024-.133-.04-.2a1.152 1.152 0 0 0-1.117-.879H1.391c-.52 0-.961.36-1.121.88-.36 1.718-.36 3.597 0 5.437.12.52.601.879 1.12.879h3.637c.52 0 .996-.36 1.118-.88zm11.23-5.516h3.637c.16 0 .32.121.32.239.32 1.601.32 3.359 0 5.078 0 .16-.16.277-.32.277h-3.637a.349.349 0 0 1-.32-.238c-.028-.157-.055-.313-.078-.473v-.047c-.2-1.36-.2-2.719 0-4.035v-.066c.023-.153.05-.305.078-.454 0-.16.16-.28.32-.28zm-7.352.824c.012.227.168.375.399.375.234 0 .394-.156.398-.386.266-.004.535-.004.801 0 .004.23.164.386.399.386.23 0 .386-.148.398-.375 1.23.036 2.457.122 3.672.254-.016.133-.031.262-.043.395-.11.996-.09 2.02.05 3.043-.956.105-1.917.18-2.882.223-.024-.207-.176-.344-.395-.344-.23 0-.386.148-.398.375-.27.008-.535.011-.8.015-.009-.234-.165-.39-.4-.39-.238 0-.394.156-.402.39-.265-.004-.53-.007-.8-.015A.378.378 0 0 0 9.62 8.8c-.219 0-.371.136-.394.347a42.67 42.67 0 0 1-2.922-.226c.14-1.024.156-2.047.05-3.043-.015-.133-.027-.262-.043-.395a45.06 45.06 0 0 1 3.711-.254zM1.07 9.762c-.32-1.68-.32-3.477 0-5.075.04-.16.16-.28.32-.28h3.637c.16 0 .317.12.317.238.32 1.601.32 3.359 0 5.078 0 .16-.157.277-.317.277H1.391a.345.345 0 0 1-.32-.238zm0 0M23.73 14.078a1.156 1.156 0 0 0-1.12-.879h-3.637c-.52 0-.996.36-1.118.88a2.878 2.878 0 0 0-.039.194 44.212 44.212 0 0 0-10.035.004c-.011-.066-.023-.132-.039-.199a1.148 1.148 0 0 0-1.117-.879H2.988c-.52 0-.96.36-1.12.88-.36 1.718-.36 3.597 0 5.437.12.52.6.879 1.12.879h3.637c.52 0 1-.36 1.117-.88.016-.07.028-.136.04-.203 1.679.176 3.359.282 5.038.282 1.668 0 3.336-.102 5.004-.246.012.054.02.109.031.168.122.52.598.879 1.118.879h3.636c.52 0 1-.36 1.121-.88.36-1.84.36-3.718 0-5.437zM6.625 19.594H2.988a.35.35 0 0 1-.32-.239c-.32-1.68-.32-3.48 0-5.078 0-.16.16-.277.32-.277h3.637c.16 0 .277.078.32.238.32 1.598.32 3.356 0 5.075 0 .16-.16.28-.32.28zm8.188-.856c-.024-.207-.176-.343-.395-.343-.23 0-.387.148-.398.375l-.801.011c-.008-.23-.164-.386-.399-.386-.238 0-.394.156-.398.386-.27 0-.535-.004-.8-.011-.013-.227-.169-.375-.403-.375-.219 0-.371.136-.395.343a45.508 45.508 0 0 1-2.922-.222c.141-1.024.16-2.051.051-3.047a13.26 13.26 0 0 0-.043-.39 43.41 43.41 0 0 1 3.711-.255.378.378 0 0 0 .399.375c.234 0 .394-.156.398-.39h.8c.009.234.165.39.4.39a.397.397 0 0 0 .398-.375c1.23.035 2.457.117 3.671.254-.015.129-.027.262-.042.39-.106.997-.09 2.024.05 3.048-.953.105-1.918.18-2.883.222zm8.117.575c0 .16-.16.28-.32.28h-3.637a.345.345 0 0 1-.317-.238c-.031-.16-.058-.316-.082-.472v-.047c-.199-1.36-.199-2.719 0-4.04v-.062c.024-.152.051-.304.082-.457 0-.16.157-.277.317-.277h3.636c.16 0 .282.078.32.238.321 1.598.321 3.356 0 5.075zm0 0"/>
    <path d="M10.422 7.203c.238 0 .398-.16.398-.398 0-.239-.16-.399-.398-.399-.242 0-.399.16-.399.399 0 .238.157.398.399.398zm0 0M12.02 7.203c.242 0 .398-.16.398-.398 0-.239-.156-.399-.398-.399-.239 0-.399.16-.399.399 0 .238.16.398.399.398zm0 0M9.621 8.004c.242 0 .402-.16.402-.399 0-.242-.16-.402-.402-.402-.238 0-.398.16-.398.402 0 .239.16.399.398.399zm0 0M11.219 7.203c-.239 0-.399.16-.399.402 0 .239.16.399.399.399.242 0 .402-.16.402-.399 0-.242-.16-.402-.402-.402zm0 0M12.82 7.203c-.242 0-.402.16-.402.402 0 .239.16.399.402.399.239 0 .399-.16.399-.399 0-.242-.16-.402-.399-.402zm0 0M10.422 8.004c-.242 0-.399.16-.399.398 0 .243.157.399.399.399.238 0 .398-.156.398-.399 0-.238-.16-.398-.398-.398zm0 0M12.02 8.004c-.239 0-.399.16-.399.398 0 .243.16.399.399.399.242 0 .398-.156.398-.399 0-.238-.156-.398-.398-.398zm0 0M9.621 6.406c.242 0 .402-.16.402-.402 0-.238-.16-.399-.402-.399-.238 0-.398.16-.398.399 0 .242.16.402.398.402zm0 0M11.219 6.406c.242 0 .402-.16.402-.402 0-.238-.16-.399-.402-.399-.239 0-.399.16-.399.399 0 .242.16.402.399.402zm0 0M12.82 6.406c.239 0 .399-.16.399-.402 0-.238-.16-.399-.399-.399-.242 0-.402.16-.402.399 0 .242.16.402.402.402zm0 0M12.02 16.797c.242 0 .398-.16.398-.402 0-.239-.156-.399-.398-.399-.239 0-.399.16-.399.399 0 .242.16.402.399.402zm0 0M13.617 16.797c.203 0 .403-.16.403-.402 0-.239-.16-.399-.403-.399-.238 0-.398.16-.398.399 0 .242.16.402.398.402zm0 0M11.219 16.797c-.239 0-.399.16-.399.398 0 .239.16.399.399.399.242 0 .402-.16.402-.399 0-.238-.16-.398-.402-.398zm0 0M12.82 16.797c-.242 0-.402.16-.402.398 0 .239.16.399.402.399.239 0 .399-.16.399-.399 0-.238-.16-.398-.399-.398zm0 0M14.418 16.797c-.238 0-.398.16-.398.398 0 .239.16.399.398.399a.4.4 0 0 0 .398-.399c0-.238-.16-.398-.398-.398zm0 0M12.02 17.594c-.239 0-.399.16-.399.402 0 .238.16.399.399.399.242 0 .398-.16.398-.399 0-.242-.156-.402-.398-.402zm0 0M13.617 17.594c-.238 0-.398.16-.398.402 0 .238.16.399.398.399a.4.4 0 0 0 .403-.399c0-.242-.16-.402-.403-.402zm0 0M11.219 15.996c.242 0 .402-.16.402-.398 0-.243-.16-.399-.402-.399-.239 0-.399.156-.399.399 0 .238.16.398.399.398zm0 0M12.82 15.996c.239 0 .399-.16.399-.398 0-.243-.16-.399-.399-.399-.242 0-.402.156-.402.399 0 .238.16.398.402.398zm0 0M14.418 15.2c-.238 0-.398.155-.398.398 0 .238.16.398.398.398a.4.4 0 0 0 .398-.398c0-.243-.16-.399-.398-.399zm0 0"/>
</svg>
